X:912
T:Paddy Gone to France
R:reel
H:See also #908
Z:id:hn-reel-912
M:C|
L:1/8
K:Edor
BE~E2 BFAF | EFDE FA~A2 | BE~E2 B2AF | EFDE FDD2 :|
|: d2fd BAFA | d2fd Be~e2 | d2fd BdAF | E2DE FDD2 :|

